X:955
T: Reens
S: B.Breathnach:"Ceol Rince na hEireann" IV/76 (gan ainm)
Z: B.Black
L: 1/8
M: 2/4
Q: 280
R: polka
K: D
A|df f/e/d/c/|e/d/c/B/ Aa|a/g/f/g/ eA|a/g/f/g/ eA|
df f/e/d/c/|e/d/c/B/ Aa|a/g/f/g/ eA|d2 d ||
A|ff f/e/f/g/|ag gf|gg/f/ g/f/g/a/|ba gc|
df f/e/f/g/|af gf|g/b/a/g/ f/e/d/c/|d/f/a/g/ f/e/d/c/ ||
